flaticon/office/analytics-14.svg

<svg xmlns="http://www.w3.org/2000/svg" width="32" height="32" viewBox="0 0 24 24">
    <path d="M 22.199219 0.800781 L 1.800781 0.800781 C 0.800781 0.800781 0 1.601562 0 2.601562 L 0 16.601562 C 0 17.601562 0.800781 18.398438 1.800781 18.398438 L 9.480469 18.398438 L 8.878906 20.800781 L 8.800781 20.800781 C 7.679688 20.800781 6.800781 21.679688 6.800781 22.800781 C 6.800781 23.039062 6.960938 23.199219 7.199219 23.199219 L 16.800781 23.199219 C 17.039062 23.199219 17.199219 23.039062 17.199219 22.800781 C 17.199219 21.679688 16.320312 20.800781 15.199219 20.800781 L 15.121094 20.800781 L 14.519531 18.398438 L 22.199219 18.398438 C 23.199219 18.398438 24 17.601562 24 16.601562 L 24 2.601562 C 24 1.601562 23.199219 0.800781 22.199219 0.800781 Z M 0.800781 2.601562 C 0.800781 2.039062 1.238281 1.601562 1.800781 1.601562 L 22.199219 1.601562 C 22.761719 1.601562 23.199219 2.039062 23.199219 2.601562 L 23.199219 14.398438 L 0.800781 14.398438 Z M 16.359375 22.398438 L 7.679688 22.398438 C 7.839844 21.921875 8.28125 21.601562 8.800781 21.601562 L 15.238281 21.601562 C 15.761719 21.601562 16.199219 21.921875 16.359375 22.398438 Z M 14.28125 20.800781 L 9.71875 20.800781 L 10.320312 18.398438 L 13.679688 18.398438 Z M 23.199219 16.601562 C 23.199219 17.160156 22.761719 17.601562 22.199219 17.601562 L 1.800781 17.601562 C 1.238281 17.601562 0.800781 17.160156 0.800781 16.601562 L 0.800781 15.199219 L 23.199219 15.199219 Z M 23.199219 16.601562"/>
    <path d="M3.199219 10.800781L3.199219 13.601562 6.398438 13.601562 6.398438 8.800781 3.199219 8.800781zM5.601562 12.800781L4 12.800781 4 11.601562 5.601562 11.601562zM4 9.601562L5.601562 9.601562 5.601562 10.800781 4 10.800781zM6.800781 10.800781L6.800781 13.601562 10 13.601562 10 7.199219 6.800781 7.199219zM9.199219 12.800781L7.601562 12.800781 7.601562 11.601562 9.199219 11.601562zM7.601562 8L9.199219 8 9.199219 10.800781 7.601562 10.800781zM10.398438 10.800781L10.398438 13.601562 13.601562 13.601562 13.601562 4.800781 10.398438 4.800781zM12.800781 12.800781L11.199219 12.800781 11.199219 11.601562 12.800781 11.601562zM11.199219 5.601562L12.800781 5.601562 12.800781 10.800781 11.199219 10.800781zM14 10.800781L14 13.601562 17.199219 13.601562 17.199219 7.601562 14 7.601562zM16.398438 12.800781L14.800781 12.800781 14.800781 11.601562 16.398438 11.601562zM14.800781 8.398438L16.398438 8.398438 16.398438 10.800781 14.800781 10.800781zM17.601562 10.800781L17.601562 13.601562 20.800781 13.601562 20.800781 2.398438 17.601562 2.398438zM20 12.800781L18.398438 12.800781 18.398438 11.601562 20 11.601562zM18.398438 3.199219L20 3.199219 20 10.800781 18.398438 10.800781zM6 2.800781L4 2.800781C3.761719 2.800781 3.601562 2.960938 3.601562 3.199219 3.601562 3.441406 3.761719 3.601562 4 3.601562L5.039062 3.601562 2.921875 5.71875C2.761719 5.878906 2.761719 6.121094 2.921875 6.28125 3 6.359375 3.078125 6.398438 3.199219 6.398438 3.320312 6.398438 3.398438 6.359375 3.480469 6.28125L5.601562 4.160156 5.601562 5.199219C5.601562 5.441406 5.761719 5.601562 6 5.601562 6.238281 5.601562 6.398438 5.441406 6.398438 5.199219L6.398438 3.199219C6.398438 2.960938 6.238281 2.800781 6 2.800781zM6 2.800781"/>
</svg>

<svg xmlns="http://www.w3.org/2000/svg" width="32" height="32" viewBox="0 0 24 24">
    <path d="M22.2.8H1.8C.8.8 0 1.603 0 2.603v14c0 1 .8 1.796 1.8 1.796h7.68l-.601 2.403H8.8c-1.121 0-2 .879-2 2 0 .238.16.398.398.398h9.602c.238 0 .398-.16.398-.398 0-1.121-.879-2-2-2h-.078l-.601-2.403h7.68c1 0 1.8-.796 1.8-1.796v-14c0-1-.8-1.801-1.8-1.801zM.8 2.603c0-.563.438-1 1-1h20.4c.562 0 1 .437 1 1v11.796H.8zm15.56 19.796H7.68c.16-.476.601-.796 1.12-.796h6.438c.524 0 .961.32 1.121.796zm-2.079-1.597H9.72l.601-2.403h3.36zm8.918-4.2a.99.99 0 0 1-1 1H1.801a.99.99 0 0 1-1-1V15.2h22.398zm0 0"/>
    <path d="M3.2 10.8v2.802h3.198V8.8H3.2zm2.402 2H4v-1.198h1.602zM4 9.603h1.602V10.8H4zm0 0M6.8 10.8v2.802H10V7.199H6.8zm2.4 2H7.601v-1.198h1.597zM7.601 8h1.597v2.8H7.602zm0 0M10.398 10.8v2.802h3.204V4.8h-3.204zm2.403 2h-1.602v-1.198h1.602zm-1.602-7.198h1.602V10.8h-1.602zm0 0M14 10.8v2.802h3.2v-6H14zm2.398 2h-1.597v-1.198h1.597zm-1.597-4.402h1.597v2.403h-1.597zm0 0M17.602 10.8v2.802H20.8V2.398h-3.2zm2.398 2h-1.602v-1.198H20zm-1.602-9.6H20v7.6h-1.602zm0 0M6 2.8H4c-.238 0-.398.16-.398.4 0 .241.16.402.398.402h1.04L2.921 5.719a.39.39 0 0 0 0 .562.357.357 0 0 0 .277.117c.121 0 .2-.039.281-.117l2.122-2.12v1.038c0 .242.16.403.398.403.238 0 .398-.16.398-.403v-2c0-.238-.16-.398-.398-.398zm0 0"/>
</svg>
